X:37
T:Charlie Lennon's
Z: id:dc-reel-36
M:C
L:1/8
K:B Dorian
A|FBB2 fBB2|dcBc AEE2|FBB2 ABce|afec Baga|!
f2ec f2ec|BABc BAFE|FBB2 ABce|afec B3:|!
A|FBdc BFF2|EAcB AEE2|FBdc Bdfb|afec Bcdc|!
Bcde fBB2|afec ABce|f2bf afef|afec B3:|!

